X: 1
T: After The Storm
M: 4/4
L: 1/8
R: reel
K: Dmaj
|:&quot;D&quot;dAFA ~D2AD|dAFD &quot;G&quot;GABG|&quot;D&quot;dAFA ~D2(3Bcd|&quot;A&quot;edBA FABc|
&quot;D&quot;dAFA ~D2AD|dAFD &quot;G&quot;GABG|&quot;A&quot;ABcd ecde|&quot;D&quot;fedc d2AB:|
|:&quot;D&quot;dAFA eAFA|fAeA dAFA|&quot;A&quot;cAEA eAEA|&quot;G&quot;gAfA &quot;A&quot;eAGA|
&quot;D&quot;dAFA eAFA|fAeA dAFA|&quot;G&quot;dBAG &quot;D&quot;FGAd|fedc d2AB:|
